icons/src/scalable/default/categories/diagnostics-symbolic.svg

<?xml version="1.0" encoding="UTF-8" standalone="no"?>
<svg
   version="1.1"
   viewBox="0 0 16 16"
   id="svg6"
   sodipodi:docname="diagnostics-symbolic.svg"
   inkscape:version="1.1.1 (26b7af14f2, 2022-01-19)"
   xmlns:inkscape="http://www.inkscape.org/namespaces/inkscape"
   xmlns:sodipodi="http://sodipodi.sourceforge.net/DTD/sodipodi-0.dtd"
   xmlns="http://www.w3.org/2000/svg"
   xmlns:svg="http://www.w3.org/2000/svg">
  <defs
     id="defs10" />
  <sodipodi:namedview
     id="namedview8"
     pagecolor="#ffffff"
     bordercolor="#666666"
     borderopacity="1.0"
     inkscape:pageshadow="2"
     inkscape:pageopacity="0.0"
     inkscape:pagecheckerboard="0"
     showgrid="true"
     inkscape:zoom="9.8994949"
     inkscape:cx="14.798735"
     inkscape:cy="-3.8890873"
     inkscape:window-width="1920"
     inkscape:window-height="1016"
     inkscape:window-x="0"
     inkscape:window-y="27"
     inkscape:window-maximized="1"
     inkscape:current-layer="svg6">
    <inkscape:grid
       type="xygrid"
       id="grid1190" />
  </sodipodi:namedview>
  <path
     id="path2"
     style="font-variant-ligatures:normal;font-variant-position:normal;font-variant-caps:normal;font-variant-numeric:normal;font-variant-alternates:normal;font-feature-settings:normal;text-indent:0;text-decoration-line:none;text-decoration-style:solid;text-decoration-color:#000000;text-transform:none;text-orientation:mixed;shape-padding:0;isolation:auto;mix-blend-mode:normal;fill:#363636"
     d="M 3.9941406 0 C 2.7361406 0.015 1.8155 -0.030234365 1.0625 0.38476562 A 1.88 1.88 0 0 0 0.22460938 1.3828125 C 0.059609365 1.8208125 9.2518585e-17 2.343 0 3 L 0 9 C 0 9.658 0.059609365 10.179186 0.22460938 10.617188 C 0.38860938 11.056188 0.6865 11.407234 1.0625 11.615234 C 1.8155 12.031234 2.7361406 11.985 3.9941406 12 L 6 12 L 6 13 L 7 13 L 7 11 L 4 11 C 2.741 10.985 1.9099219 10.940281 1.5449219 10.738281 C 1.3619219 10.638281 1.2581564 10.525625 1.1601562 10.265625 C 1.0631563 10.005625 1 9.592 1 9 L 1 3 C 1 2.408 1.0631565 1.994375 1.1601562 1.734375 C 1.2581563 1.474375 1.3619219 1.3627186 1.5449219 1.2617188 C 1.9109219 1.0597188 2.741 1.015 4 1 L 12 1 C 13.259 1.015 14.087125 1.0597186 14.453125 1.2617188 C 14.637125 1.3617188 14.742844 1.474375 14.839844 1.734375 C 14.936844 1.994375 15 2.408 15 3 L 15 7 L 16 7 L 16 3 C 16 2.342 15.940391 1.8208125 15.775391 1.3828125 A 1.88 1.88 0 0 0 14.9375 0.38476562 C 14.1845 -0.031234365 13.263859 0.015 12.005859 0 L 3.9980469 0 L 3.9941406 0 z M 3.4785156 3.0019531 C 3.3828125 3.0087891 3 3.0644531 3 3.5019531 L 3 8.5019531 C 3 9.0019531 3.5 9.0019531 3.5 9.0019531 L 7 9.0019531 L 7 8 L 4 8 L 4 4.9980469 L 8 4.9980469 L 8 7 L 9 7 L 9 3.5019531 C 9 3.0019531 8.563 3.0019531 8.5 3.0019531 L 3.5 3.0019531 C 3.5 3.0019531 3.4921875 3.0009766 3.4785156 3.0019531 z M 11.5 3.0019531 C 11.5 3.0019531 11 3.0019531 11 3.5019531 L 11 4.4863281 C 11 4.4863281 11 4.9863281 11.5 4.9863281 L 12.5 4.9863281 C 12.5 4.9863281 13 4.9863281 13 4.4863281 L 13 3.5039062 C 13 3.5039062 13 3.0039062 12.5 3.0039062 L 11.5 3.0019531 z M 11.478516 6 C 11.382812 6.0068359 11 6.0625 11 6.5 L 11 7 L 13 7 L 13 6.5019531 C 13 6.5019531 13 6.0019531 12.5 6.0019531 L 11.5 6 C 11.5 6 11.492188 5.9990234 11.478516 6 z M 3 14 L 0 15 L 0 16 L 7 16 L 7 14 L 3 14 z " />
  <path
     d="m11 8c-1.6509 0-3 1.3491-3 3 0 1.6509 1.3491 3 3 3 0.67614 0 1.2939-0.2346 1.7969-0.61523a0.66843 0.66843 0 0 0 0.19141 0.54883l1.6719 1.6719a0.66843 0.66843 0 0 0 0.94531 0 0.66843 0.66843 0 0 0 0-0.94531l-1.6719-1.6719a0.66843 0.66843 0 0 0-0.49609-0.19531 0.66843 0.66843 0 0 0-0.05273 0.0039c0.38063-0.50294 0.61523-1.1207 0.61523-1.7969 0-1.6509-1.3491-3-3-3zm0 1c1.1105 0 2 0.88951 2 2 0 1.1105-0.88951 2-2 2s-2-0.88951-2-2c0-1.1105 0.88951-2 2-2z"
     color="#000000"
     color-rendering="auto"
     dominant-baseline="auto"
     fill="#363636"
     image-rendering="auto"
     shape-rendering="auto"
     solid-color="#000000"
     stop-color="#000000"
     style="font-feature-settings:normal;font-variant-alternates:normal;font-variant-caps:normal;font-variant-east-asian:normal;font-variant-ligatures:normal;font-variant-numeric:normal;font-variant-position:normal;font-variation-settings:normal;inline-size:0;isolation:auto;mix-blend-mode:normal;shape-margin:0;shape-padding:0;text-decoration-color:#000000;text-decoration-line:none;text-decoration-style:solid;text-indent:0;text-orientation:mixed;text-transform:none;white-space:normal"
     id="path4" />
</svg>

<svg version="1.1" viewBox="0 0 16 16" xmlns="http://www.w3.org/2000/svg">
 <path d="m3.9941 0c-1.258 0.015-2.1786-0.030234-2.9316 0.38477a1.88 1.88 0 0 0-0.83789 0.99805c-0.165 0.438-0.22461 0.96019-0.22461 1.6172v6c0 0.658 0.059609 1.1792 0.22461 1.6172 0.164 0.439 0.46189 0.79005 0.83789 0.99805 0.753 0.416 1.6736 0.36977 2.9316 0.38477h2.0059v1h1v-2h-3c-1.259-0.015-2.0901-0.059719-2.4551-0.26172-0.183-0.1-0.28677-0.21266-0.38477-0.47266-0.097-0.26-0.16016-0.67362-0.16016-1.2656v-6c0-0.592 0.063156-1.0056 0.16016-1.2656 0.098-0.26 0.20177-0.37166 0.38477-0.47266 0.366-0.202 1.1961-0.24672 2.4551-0.26172h8c1.259 0.015 2.0871 0.059719 2.4531 0.26172 0.184 0.1 0.28972 0.21266 0.38672 0.47266s0.16016 0.67362 0.16016 1.2656v4h1v-4c0-0.658-0.059609-1.1792-0.22461-1.6172a1.88 1.88 0 0 0-0.83789-0.99805c-0.753-0.416-1.6736-0.36977-2.9316-0.38477h-8.0078-0.0039063zm-0.51562 3.002c-0.095703 0.006836-0.47852 0.0625-0.47852 0.5v5c0 0.5 0.5 0.5 0.5 0.5h3.5v-1.002h-3v-3.002h4v2.002h1v-3.498c0-0.5-0.437-0.5-0.5-0.5h-5s-0.0078125-9.765e-4 -0.021484 0zm8.0215 0s-0.5 0-0.5 0.5v0.98438s0 0.5 0.5 0.5h1s0.5 0 0.5-0.5v-0.98242s0-0.5-0.5-0.5l-1-0.0019531zm-0.021484 2.998c-0.095704 0.0068359-0.47852 0.0625-0.47852 0.5v0.5h2v-0.49805s0-0.5-0.5-0.5l-1-0.0019531s-0.007812-9.766e-4 -0.021484 0zm-8.4785 8-3 1v1h7v-2h-4z" fill="#363636" style="font-feature-settings:normal;font-variant-alternates:normal;font-variant-caps:normal;font-variant-ligatures:normal;font-variant-numeric:normal;font-variant-position:normal;isolation:auto;mix-blend-mode:normal;shape-padding:0;text-decoration-color:#000000;text-decoration-line:none;text-decoration-style:solid;text-indent:0;text-orientation:mixed;text-transform:none"/>
 <path d="m11 8c-1.6509 0-3 1.3491-3 3s1.3491 3 3 3c0.67614 0 1.2939-0.2346 1.7969-0.61523a0.66843 0.66843 0 0 0 0.19141 0.54883l1.6719 1.6719a0.66843 0.66843 0 0 0 0.94531 0 0.66843 0.66843 0 0 0 0-0.94531l-1.6719-1.6719a0.66843 0.66843 0 0 0-0.49609-0.19531 0.66843 0.66843 0 0 0-0.05273 0.0039c0.38063-0.50294 0.61523-1.1207 0.61523-1.7969 0-1.6509-1.3491-3-3-3zm0 1c1.1105 0 2 0.88951 2 2 0 1.1105-0.88951 2-2 2s-2-0.88951-2-2c0-1.1105 0.88951-2 2-2z" color="#000000" color-rendering="auto" dominant-baseline="auto" fill="#363636" image-rendering="auto" shape-rendering="auto" solid-color="#000000" stop-color="#000000" style="font-feature-settings:normal;font-variant-alternates:normal;font-variant-caps:normal;font-variant-east-asian:normal;font-variant-ligatures:normal;font-variant-numeric:normal;font-variant-position:normal;font-variation-settings:normal;inline-size:0;isolation:auto;mix-blend-mode:normal;shape-margin:0;shape-padding:0;text-decoration-color:#000000;text-decoration-line:none;text-decoration-style:solid;text-indent:0;text-orientation:mixed;text-transform:none;white-space:normal"/>
</svg>
